!! 00026] TT[TB
!! Eigene Aufnahme, Guangzhou, 5.5.87
!!!OTL: Maozhuxi laiguo wuzhishan
!!!ARE: Hainan, Baoting
!! Ethnic Group: Li
!! II, 347 (1)
!!!SCT: C0935
!!!YEM: Copyright 1995, estate of Helmut Schaffrath.
**kern
*ICvox
*Ivox
*M2/4
*k[]
*C:
{4a
4g
=1
16cc
[8.dd
4dd]
=2
8a
8cc
8dd
16cc
16dd
=3
16ee
[8.dd
4dd]}
=4
{8cc
8a
4a
=5
16dd
[8.cc
4cc]
=6
4cc
4g
=7
16a
[8.g
4g]}
=8
{8cc
16cc
16dd
8cc
[8dd
=9
2dd]
=10
8ee
8cc
16dd
16ee
[8dd
=11
4.dd]
16cc
16a}
=12
{16.cc
32dd
16dd
16cc
4a
=13
2g
=14
8dd
8cc
4a
=15
16a
[8.g
4g]}
==
!!!AGN: Shange, Shuiman diao. Xinminge
!! Die Saengerin Lei Huilan ist Angehoerige der Zhuang Minderheit und
!!    studiert an der Guangzhouer Musikhochschule.
!!    Aufgenommen am 5.5.87. Nationalitaet laut Band eingetragen.
!!    Wenig Verzierungen.
!!!ONB: ESAC (Essen Associative Code) Database: CHINA
!!!AMT: simple duple
!!!AIN: vox
!!!EED: Helmut Schaffrath
!!!EEV: 1.0
*-
!!!ONB: Tied note syntax fixed by Craig Sapp, 2004/05/03/
